x-pack/platform/plugins/private/intercepts/public/assets/communication.svg

<svg width="113" height="81" viewBox="0 0 113 81" fill="none" xmlns="http://www.w3.org/2000/svg">
<g clip-path="url(#clip0_1_1084)">
<path d="M109.006 0.500443H37.0027C35.071 0.500443 33.5096 2.06182 33.5096 3.99353V49.4438C33.5096 51.3755 35.071 52.9368 37.0027 52.9368H83.3337L99.8884 65.8883V68.6207H103.832L103.582 53.2271L108.996 52.9469C110.928 52.9469 112.49 51.3855 112.49 49.4538V3.99353C112.49 2.06182 110.928 0.500443 108.996 0.500443H109.006Z" fill="#153385" stroke="#101C3F" stroke-miterlimit="10"/>
<path d="M105.834 0.500443H33.8299C31.8982 0.500443 30.3368 2.06182 30.3368 3.99353V49.4438C30.3368 51.3755 31.8982 52.9368 33.8299 52.9368H80.1609L99.438 68.5206C99.7182 68.7408 100.129 68.5507 100.129 68.1903V52.9368H105.824C107.755 52.9368 109.317 51.3755 109.317 49.4438V3.99353C109.317 2.06182 107.755 0.500443 105.824 0.500443H105.834Z" fill="#0B64DD" stroke="#101C3F" stroke-miterlimit="10"/>
<path d="M50.7149 21.0386H23.3106C10.9597 21.0386 0.61054 30.8673 0.500443 43.2182C0.410363 52.9569 5.95527 61.2542 14.5529 64.457V79.8807C14.5529 80.0909 14.723 80.261 14.9332 80.261H19.7975C20.0077 80.261 20.1779 80.0909 20.1779 79.8807V76.6378L33.1393 65.8783H50.1744C62.3352 65.8783 72.6843 56.4299 73.1147 44.2792C73.5651 31.5279 63.3661 21.0386 50.7049 21.0386H50.7149Z" fill="#153385" stroke="#101C3F" stroke-miterlimit="10"/>
<path d="M55.4891 21.0386H27.6945C15.3136 21.0386 5.27467 31.0775 5.27467 43.4585C5.27467 53.097 11.3701 61.2842 19.8976 64.457V80.261L37.9236 65.8783H55.4891C67.8701 65.8783 77.9089 55.8394 77.9089 43.4585C77.9089 31.0775 67.8701 21.0386 55.4891 21.0386Z" fill="white" stroke="#101C3F" stroke-linejoin="round"/>
<path d="M25.2223 46.4211C27.3284 46.4211 29.0357 44.7138 29.0357 42.6077C29.0357 40.5016 27.3284 38.7943 25.2223 38.7943C23.1163 38.7943 21.4089 40.5016 21.4089 42.6077C21.4089 44.7138 23.1163 46.4211 25.2223 46.4211Z" fill="#101C3F"/>
<path d="M41.5968 46.4211C43.7029 46.4211 45.4102 44.7138 45.4102 42.6077C45.4102 40.5016 43.7029 38.7943 41.5968 38.7943C39.4907 38.7943 37.7834 40.5016 37.7834 42.6077C37.7834 44.7138 39.4907 46.4211 41.5968 46.4211Z" fill="#101C3F"/>
<path d="M57.9713 46.4211C60.0774 46.4211 61.7847 44.7138 61.7847 42.6077C61.7847 40.5016 60.0774 38.7943 57.9713 38.7943C55.8652 38.7943 54.1579 40.5016 54.1579 42.6077C54.1579 44.7138 55.8652 46.4211 57.9713 46.4211Z" fill="#101C3F"/>
</g>
<defs>
<clipPath id="clip0_1_1084">
<rect width="112.9" height="80.69" fill="white" transform="scale(1.00089)"/>
</clipPath>
</defs>
</svg>

<svg xmlns="http://www.w3.org/2000/svg" width="113" height="81" fill="none"><g clip-path="url(#a)"><path fill="#153385" stroke="#101C3F" stroke-miterlimit="10" d="M109.006.5H37.003a3.49 3.49 0 0 0-3.493 3.494v45.45a3.49 3.49 0 0 0 3.493 3.493h46.33l16.555 12.951v2.733h3.944l-.25-15.394 5.414-.28a3.49 3.49 0 0 0 3.494-3.493V3.994A3.49 3.49 0 0 0 108.996.5z"/><path fill="#0B64DD" stroke="#101C3F" stroke-miterlimit="10" d="M105.834.5H33.83a3.49 3.49 0 0 0-3.493 3.494v45.45a3.49 3.49 0 0 0 3.493 3.493h46.33L99.439 68.52c.28.22.691.03.691-.33V52.936h5.695a3.49 3.49 0 0 0 3.493-3.493V3.994A3.49 3.49 0 0 0 105.824.5z"/><path fill="#153385" stroke="#101C3F" stroke-miterlimit="10" d="M50.715 21.039H23.31C10.96 21.039.61 30.867.5 43.219c-.09 9.738 5.454 18.035 14.052 21.238v15.424c0 .21.17.38.38.38h4.865c.21 0 .38-.17.38-.38v-3.243l12.961-10.76h17.035c12.161 0 22.51-9.448 22.94-21.599.451-12.751-9.748-23.24-22.41-23.24z"/><path fill="#fff" stroke="#101C3F" stroke-linejoin="round" d="M55.49 21.039H27.694c-12.381 0-22.42 10.039-22.42 22.42 0 9.638 6.095 17.825 14.623 20.998v15.804l18.026-14.383h17.565c12.381 0 22.42-10.039 22.42-22.42 0-12.38-10.039-22.42-22.42-22.42Z"/><path fill="#101C3F" d="M25.222 46.421a3.813 3.813 0 1 0 0-7.627 3.813 3.813 0 0 0 0 7.627M41.597 46.421a3.813 3.813 0 1 0 0-7.627 3.813 3.813 0 0 0 0 7.627M57.971 46.421a3.813 3.813 0 1 0 0-7.627 3.813 3.813 0 0 0 0 7.627"/></g><defs><clipPath id="a"><path fill="#fff" d="M0 0h113v80.762H0z"/></clipPath></defs></svg>
